X:1
T:Steady, Brother, Steady
T:Haldor Lillenas
T:Steady, Brother, Steady
T:Public Domain
T:Public Domain
C:Haldor Lillenas
Z:Public Domain
%%score ( 1 2 ) ( 3 4 )
L:1/8
M:4/4
K:Eb
V:1 treble 
V:2 treble 
V:3 bass 
V:4 bass 
V:1
 E>E E>E E>B, E[EG] | [GB]2 [Ge]2 [GB]3 [EG] | [FA]>[FA] [FA]>[FA] | [FA]>[DF] [B,D]B, | %4
w: 1.~Stead- y, bro- ther, stead- y, though the|ther o’er you and|it veil your skies;|Keep your course un-|
w: 2.~Stead- y, bro- ther, stead- y, though the|in safe- ty, for|He rules the deep;|Waves shall not o’er-|
w: 3.~Stead- y, bro- ther, stead- y, look you|and tem- pest see,|the port lies fair;|There with- in the|
 (FA) [Ac]2 [GB]4 | E>E E>E E>B, E[EG] | [GB]2 [Ge]2 [GB]4 | [Ac]>[Ac] [Ac]>[Ac] [GB]>[Ge] GG | %8
w: vered, * and be|be true; Fear not while the Mas- ter|||
w: you * while the|lot’s near; By the chart He giv- eth|||
w: bor * with the|all past, You can safe- ly an- chor,|||
 B2 B,2 [B,E]4 ||"^Refrain" [GB] [GB]3 [Ge] [Ge]2 [GB] | [Ac]2 [Ae]>[Ae] [GB]4 | %11
w: |||
w: |||
w: |||
 [GB] [GB]3 [Ge] [Ge]2 [Gc] | (FF)(FF) (A>A A2) | [Geg] [Geg]3 [GBe] [GBe]2 [GB] | %14
w: |||
w: |||
w: |||
 [Ge]2 [Ge]2 [Ae]4 | [Ac]>[Ac] [Ac]>[Ac] [GB]>[Ge] GG | B2 B,2 [B,E]4 |] %17
w: |||
w: |||
w: |||
V:2
 E>E E>E E>B, E x | x8 | x4 | x3 B, | d2 x6 | E>E E>E E>B, E x | x8 | x6 GG | B2 B,2 x4 || x8 | %10
w: storm winds rise, And dark- ness ga-|||wa-|brave,|holds the helm with you. * *|||||
w: wild waves sweep, Your barque will ride|||flow|Pi-|you, your course can steer. * *|||||
w: o- ver there, Be- yond the cloud|||har-|storms|shel- tered safe at last. * *|||||
 x8 | x8 | d2 e2 f4 | x8 | x8 | x6 GG | B2 B,2 x4 |] %17
w: |||||||
w: |||||||
w: |||||||
V:3
 [E,G,]>[E,G,] [E,G,]>[E,G,] [E,G,]>[E,G,] [E,G,][E,B,] | [E,E]2 [E,B,]2 [E,E]3 [E,B,] | %2
w: ~ ~ ~ ~ ~ ~ ~ ~|~ ~ ~ ~|
 [B,,D]>[B,,D] [B,,D]>[B,,D] | [B,,D]>[B,,B,] [B,,A,][B,,A,] | (F,B,) [B,,D]2 [E,E]4 | %5
w: ~ ~ ~ ~|~ ~ ~ ~|~ * ~ ~|
 [E,G,]>[E,G,] [E,G,]>[E,G,] [E,G,]>[E,G,] [E,G,][E,B,] | [E,E]2 [E,B,]2 [E,E]4 | %7
w: ~ ~ ~ ~ ~ ~ ~ ~|~ ~ ~|
 [A,E]>[A,E] [A,E]>[A,E] [E,E]>[E,B,] G,A, | B,2 [B,,A,]2 [E,G,]4 || %9
w: ~ ~ ~ ~ ~ ~ ~ ~|Stea- dy, stea-|
 [E,E] [E,E]3 [E,B,] [E,B,]2 [E,E] | [A,E]2 [A,C]>[A,C] [E,E]4 | %11
w: though clouds veil the sky;|Stea- dy, stea- dy,|
 [E,E] [E,E]3 [E,B,] [E,B,]2 [E,B,] | (F,F,)(F,F,) (B,,>B, B,2) | %13
w: though waves roll high; Stea-|dy, * stea- * dy, * *|
 [E,B,] [E,B,]3 [E,E] [E,E]2 [E,E] | [E,B,]2 [E,_D]2 [A,C]4 | %15
w: true; Fear not while the|Mas- ter holds|
 [A,E]>[A,E] [A,E]>[A,E] [E,E]>[E,B,] G,A, | A,2 [B,,A,]2 [E,G,]4 |] %17
w: the helm with you. * * * *||
V:4
 x8 | x8 | x4 | x4 | B,,2 x6 | x8 | x8 | x6 G,A, | B,2 x6 || x8 | x8 | x8 | B,2 =A,2 B,4 | x8 | %14
w: ||||~|||~ ~|dy,||||be brave, be||
 x8 | x6 G,A, | A,2 x6 |] %17
w: |||

